svgs/light/message-arrow-down.svg

<svg xmlns="http://www.w3.org/2000/svg" viewBox="0 0 512 512"><!-- Font Awesome Pro 6.0.0-alpha2 by @fontawesome - https://fontawesome.com License - https://fontawesome.com/license (Commercial License) --><path d="M324.688 212.688L272 265.375V112C272 103.156 264.844 96 256 96S240 103.156 240 112V265.375L187.312 212.688C181.062 206.438 170.937 206.438 164.688 212.688S158.438 229.063 164.688 235.312L244.688 315.312C247.812 318.438 251.906 320 256 320S264.188 318.438 267.312 315.312L347.312 235.312C353.562 229.062 353.562 218.937 347.312 212.688S330.938 206.438 324.688 212.688ZM448 0H64C28.75 0 0 28.75 0 64V352.002C0 387.252 28.75 416.002 64 416.002H160V500.002C160 509.84 171.025 515.479 179.125 509.627L304 416.002H448C483.25 416.002 512 387.252 512 352.002V64C512 28.75 483.25 0 448 0ZM480 352.002C480 369.602 465.6 384.002 448 384.002H303.924C296.996 384.002 290.254 386.25 284.713 390.408L192 460.002V400.002C192 391.164 184.836 384.002 176 384.002H64C46.4 384.002 32 369.602 32 352.002V64C32 46.4 46.4 32 64 32H448C465.6 32 480 46.4 480 64V352.002Z"/></svg>

<svg xmlns="http://www.w3.org/2000/svg" viewBox="0 0 512 512"><!--! Font Awesome Pro 6.3.0 by @fontawesome - https://fontawesome.com License - https://fontawesome.com/license (Commercial License) Copyright 2023 Fonticons, Inc. --><path d="M324.7 212.7L272 265.4V112C272 103.2 264.8 96 256 96S240 103.2 240 112v153.4L187.3 212.7c-6.25-6.25-16.38-6.25-22.62 0s-6.25 16.38 0 22.62l80 80C247.8 318.4 251.9 320 256 320s8.188-1.562 11.31-4.688l80-80c6.25-6.25 6.25-16.38 0-22.62S330.9 206.4 324.7 212.7zM448 0H64C28.75 0 0 28.75 0 63.1v287.1c0 35.25 28.75 63.1 64 63.1h96v83.1c0 9.838 11.03 15.55 19.12 9.7L304 415.1H448c35.25 0 64-28.75 64-63.1V63.1C512 28.75 483.3 0 448 0zM480 352c0 17.6-14.4 32-32 32h-144.1c-6.928 0-13.67 2.248-19.21 6.406L192 460v-60c0-8.838-7.164-16-16-16H64c-17.6 0-32-14.4-32-32V64c0-17.6 14.4-32 32-32h384c17.6 0 32 14.4 32 32V352z"/></svg>
